actions/16/media-record.svg

<?xml version="1.0" encoding="UTF-8" standalone="no"?>
<svg
   version="1.1"
   width="16"
   height="16"
   id="svg3033"
   sodipodi:docname="media-record.svg"
   inkscape:version="1.2.2 (b0a8486541, 2022-12-01)"
   xmlns:inkscape="http://www.inkscape.org/namespaces/inkscape"
   xmlns:sodipodi="http://sodipodi.sourceforge.net/DTD/sodipodi-0.dtd"
   xmlns:xlink="http://www.w3.org/1999/xlink"
   xmlns="http://www.w3.org/2000/svg"
   xmlns:svg="http://www.w3.org/2000/svg"
   xmlns:rdf="http://www.w3.org/1999/02/22-rdf-syntax-ns#"
   xmlns:cc="http://creativecommons.org/ns#"
   xmlns:dc="http://purl.org/dc/elements/1.1/">
  <sodipodi:namedview
     id="namedview11568"
     pagecolor="#ffffff"
     bordercolor="#666666"
     borderopacity="1.0"
     inkscape:showpageshadow="2"
     inkscape:pageopacity="0.0"
     inkscape:pagecheckerboard="0"
     inkscape:deskcolor="#d1d1d1"
     showgrid="false"
     inkscape:zoom="41.7193"
     inkscape:cx="4.6860805"
     inkscape:cy="13.470983"
     inkscape:window-width="1326"
     inkscape:window-height="754"
     inkscape:window-x="554"
     inkscape:window-y="141"
     inkscape:window-maximized="0"
     inkscape:current-layer="svg3033" />
  <defs
     id="defs3035">
    <linearGradient
       y2="23"
       x2="39.441502"
       y1="23"
       x1="6.6574788"
       gradientTransform="matrix(0,0.53572674,-0.53572674,0,20.321716,-4.3212879)"
       gradientUnits="userSpaceOnUse"
       id="linearGradient3932-9"
       xlink:href="#linearGradient3907" />
    <linearGradient
       id="linearGradient3907">
      <stop
         id="stop3909"
         offset="0"
         style="stop-color:#fafafa;stop-opacity:1" />
      <stop
         id="stop3911"
         offset="1"
         style="stop-color:#abacae;stop-opacity:1" />
    </linearGradient>
    <linearGradient
       x1="71.204002"
       y1="6.2375998"
       x2="71.204002"
       y2="44.341"
       id="linearGradient3101"
       gradientUnits="userSpaceOnUse"
       gradientTransform="matrix(0.35135133,0,0,0.35135132,-17.203668,-0.9094021)">
      <stop
         id="stop4013-7"
         style="stop-color:#ffffff;stop-opacity:1"
         offset="0" />
      <stop
         id="stop4015-5"
         style="stop-color:#ffffff;stop-opacity:0.23529412"
         offset="0.50775999" />
      <stop
         id="stop4017-3"
         style="stop-color:#ffffff;stop-opacity:0.15686275"
         offset="0.83456999" />
      <stop
         id="stop4019-5"
         style="stop-color:#ffffff;stop-opacity:0.39215687"
         offset="1" />
    </linearGradient>
    <linearGradient
       xlink:href="#linearGradient4011"
       id="linearGradient3993-0-6-0-8-5"
       gradientUnits="userSpaceOnUse"
       gradientTransform="matrix(0.24324334,0,0,-0.24324335,-9.4487,14.16798)"
       x1="71.204407"
       y1="6.2375584"
       x2="71.204407"
       y2="44.340794" />
    <linearGradient
       id="linearGradient4011">
      <stop
         offset="0"
         style="stop-color:#ffffff;stop-opacity:1"
         id="stop4013-35" />
      <stop
         offset="0.507761"
         style="stop-color:#ffffff;stop-opacity:0.23529412"
         id="stop4015-62" />
      <stop
         offset="0.83456558"
         style="stop-color:#ffffff;stop-opacity:0.15686275"
         id="stop4017-91" />
      <stop
         offset="1"
         style="stop-color:#ffffff;stop-opacity:0.39215687"
         id="stop4019-27" />
    </linearGradient>
    <linearGradient
       gradientUnits="userSpaceOnUse"
       y2="31.576309"
       x2="24"
       y1="16.500965"
       x1="24"
       id="linearGradient1006"
       xlink:href="#linearGradient1004"
       gradientTransform="matrix(0.46653537,0,0,0.46653537,-3.1968479,-3.196459)" />
    <linearGradient
       id="linearGradient1004">
      <stop
         id="stop1000"
         offset="0"
         style="stop-color:#ed5353;stop-opacity:1" />
      <stop
         id="stop1002"
         offset="1"
         style="stop-color:#c6262e;stop-opacity:1" />
    </linearGradient>
    <linearGradient
       gradientTransform="matrix(0.17195185,0,0,0.17195187,3.8729669,3.8731253)"
       gradientUnits="userSpaceOnUse"
       xlink:href="#linearGradient3086"
       id="linearGradient3039"
       y2="45.368999"
       x2="7.0776"
       y1="3.0816"
       x1="7.0776" />
    <linearGradient
       gradientTransform="matrix(0.36857196,0,0,0.36857202,15.153867,16.154407)"
       gradientUnits="userSpaceOnUse"
       id="linearGradient3086"
       y2="45.368999"
       x2="7.0776"
       y1="3.0816"
       x1="7.0776">
      <stop
         offset="0"
         style="stop-color:#7a0000;stop-opacity:1"
         id="stop2492-0-3" />
      <stop
         offset="1"
         style="stop-color:#c6262e;stop-opacity:1"
         id="stop2494-6-6" />
    </linearGradient>
    <linearGradient
       x1="71.204002"
       y1="6.2375998"
       x2="71.204002"
       y2="44.341"
       id="linearGradient3032"
       xlink:href="#linearGradient3101-3"
       gradientUnits="userSpaceOnUse"
       gradientTransform="matrix(0.13513513,0,0,0.13513502,-1.6937189,4.5733093)" />
    <linearGradient
       x1="71.204002"
       y1="6.2375998"
       x2="71.204002"
       y2="44.341"
       id="linearGradient3101-3"
       gradientUnits="userSpaceOnUse"
       gradientTransform="matrix(0.5135135,0,0,0.5135135,-24.836132,-1.021284)">
      <stop
         id="stop4013-6"
         style="stop-color:#ffffff;stop-opacity:1"
         offset="0" />
      <stop
         id="stop4015-1"
         style="stop-color:#ffffff;stop-opacity:0.23529412"
         offset="0.50775999" />
      <stop
         id="stop4017-2"
         style="stop-color:#ffffff;stop-opacity:0.15686275"
         offset="0.83456999" />
      <stop
         id="stop4019-9-6"
         style="stop-color:#ffffff;stop-opacity:0.39215687"
         offset="1" />
    </linearGradient>
  </defs>
  <metadata
     id="metadata3038">
    <rdf:RDF>
      <cc:Work
         rdf:about="">
        <dc:format>image/svg+xml</dc:format>
        <dc:type
           rdf:resource="http://purl.org/dc/dcmitype/StillImage" />
      </cc:Work>
    </rdf:RDF>
  </metadata>
  <path
     d="m 8.0002651,0.50025341 c -4.142363,0 -7.50044005,3.35819029 -7.50044005,7.50008079 0,4.1422698 3.35811245,7.5002698 7.50044005,7.5002698 4.1421749,0 7.4999099,-3.358 7.4999099,-7.5002698 0,-4.1418905 -3.357735,-7.5000808 -7.4999099,-7.50008079 z"
     id="path3902-8"
     style="fill:url(#linearGradient3932-9);fill-opacity:1;fill-rule:nonzero;stroke:none;stroke-width:1" />
  <path
     d="m 8.0000001,0.50182418 c -4.1374243,0 -7.49817528,3.36110812 -7.49817528,7.49817532 0,4.1374255 3.36110818,7.4981765 7.49817528,7.4981765 4.1374239,0 7.4981749,-3.361108 7.4981749,-7.4981765 0,-4.1374244 -3.361108,-7.49817531 -7.4981749,-7.49817532 z"
     id="path2555-36"
     style="opacity:0.6;fill:none;fill-opacity:1;stroke:#555761;stroke-width:1.00365;stroke-linecap:round;stroke-linejoin:round;stroke-miterlimit:4;stroke-dasharray:none;stroke-dashoffset:0;stroke-opacity:1" />
  <path
     d="m 14.5,7.9998969 c 0,3.5900541 -2.910632,6.5000001 -6.4999999,6.5000001 -3.589779,0 -6.5,-2.910631 -6.5,-6.5000001 0,-3.5897789 2.910221,-6.4997944 6.5000684,-6.4997944 3.5895735,0 6.4999315,2.9099471 6.4999315,6.4997944 z"
     id="path8655-6"
     style="color:#000000;fill:none;stroke:url(#linearGradient3101);stroke-width:1;stroke-linecap:round;stroke-linejoin:round;stroke-miterlimit:4;stroke-dasharray:none;stroke-dashoffset:0;enable-background:accumulate" />
  <path
     d="m 12.500002,8.0001597 c 0,-2.485362 -2.014868,-4.5001617 -4.4999447,-4.5001617 -2.4853046,0 -4.5000593,2.0148219 -4.5000593,4.5001617 0,2.4852483 2.0147547,4.4998423 4.5000593,4.4998423 2.4850767,0 4.4999447,-2.014594 4.4999447,-4.4998423 z"
     id="path8655-1-6-9-4-8-2"
     style="color:#000000;display:inline;overflow:visible;visibility:visible;opacity:0.5;fill:none;stroke:url(#linearGradient3993-0-6-0-8-5);stroke-width:0.999998;stroke-linecap:round;stroke-linejoin:round;stroke-miterlimit:4;stroke-dasharray:none;stroke-dashoffset:0;stroke-opacity:1;marker:none;enable-background:accumulate" />
  <path
     style="fill:url(#linearGradient1006);fill-opacity:1;stroke:url(#linearGradient3039);stroke-width:1.00365;stroke-linecap:round;stroke-linejoin:round;stroke-miterlimit:4;stroke-dasharray:none;stroke-dashoffset:0"
     id="path2555-3"
     d="m 8.0000006,4.5018252 c -1.9301502,0 -3.4981754,1.5680252 -3.4981754,3.4981753 0,1.9301494 1.5680252,3.4981745 3.4981754,3.4981745 1.9301503,0 3.4981744,-1.5680251 3.4981744,-3.4981745 0,-1.9301501 -1.5680241,-3.4981753 -3.4981744,-3.4981753 z" />
  <path
     d="M 10.5,7.9999606 C 10.5,9.3807493 9.380526,10.499959 8,10.499959 6.6193155,10.499959 5.5,9.3804857 5.5,7.9999606 5.5,6.6192772 6.6193155,5.5000413 8.0000265,5.5000413 9.3806317,5.5000413 10.5,6.6192508 10.5,7.9999606 Z"
     id="path8655-6-3"
     style="color:#000000;opacity:0.5;fill:none;stroke:url(#linearGradient3032);stroke-width:0.999998;stroke-linecap:round;stroke-linejoin:round;stroke-miterlimit:4;stroke-dasharray:none;stroke-dashoffset:0;enable-background:accumulate" />
</svg>

<?xml version="1.0" encoding="UTF-8" standalone="no"?>
<svg
   xmlns:dc="http://purl.org/dc/elements/1.1/"
   xmlns:cc="http://creativecommons.org/ns#"
   xmlns:rdf="http://www.w3.org/1999/02/22-rdf-syntax-ns#"
   xmlns:svg="http://www.w3.org/2000/svg"
   xmlns="http://www.w3.org/2000/svg"
   xmlns:xlink="http://www.w3.org/1999/xlink"
   version="1.1"
   width="16"
   height="16"
   id="svg3033">
  <defs
     id="defs3035">
    <linearGradient
       x1="71.204002"
       y1="6.2375998"
       x2="71.204002"
       y2="44.341"
       id="linearGradient3280"
       gradientUnits="userSpaceOnUse"
       gradientTransform="matrix(0.35135136,0,0,0.35135136,-17.203671,-0.90930025)">
      <stop
         id="stop4013"
         style="stop-color:#ffffff;stop-opacity:1"
         offset="0" />
      <stop
         id="stop4015"
         style="stop-color:#ffffff;stop-opacity:0.23529412"
         offset="0.50775999" />
      <stop
         id="stop4017"
         style="stop-color:#ffffff;stop-opacity:0.15686275"
         offset="0.83456999" />
      <stop
         id="stop4019"
         style="stop-color:#ffffff;stop-opacity:0.39215687"
         offset="1" />
    </linearGradient>
    <linearGradient
       x1="71.204002"
       y1="6.2375998"
       x2="71.204002"
       y2="44.341"
       id="linearGradient3076"
       gradientUnits="userSpaceOnUse"
       gradientTransform="matrix(0.18918919,0,0,-0.18918919,-5.571206,12.797424)">
      <stop
         id="stop4013-2"
         style="stop-color:#ffffff;stop-opacity:1"
         offset="0" />
      <stop
         id="stop4015-4"
         style="stop-color:#ffffff;stop-opacity:0.23529412"
         offset="0.50775999" />
      <stop
         id="stop4017-9"
         style="stop-color:#ffffff;stop-opacity:0.15686275"
         offset="0.83456999" />
      <stop
         id="stop4019-0"
         style="stop-color:#ffffff;stop-opacity:0.39215687"
         offset="1" />
    </linearGradient>
    <radialGradient
       cx="23.896"
       cy="3.99"
       r="20.396999"
       id="radialGradient3079"
       gradientUnits="userSpaceOnUse"
       gradientTransform="matrix(0,0.29307547,-0.38685444,0,9.5435496,-1.6900315)">
      <stop
         id="stop3244-4"
         style="stop-color:#f8b17e;stop-opacity:1"
         offset="0" />
      <stop
         id="stop3246-5"
         style="stop-color:#e35d4f;stop-opacity:1"
         offset="0.26238" />
      <stop
         id="stop3248-0"
         style="stop-color:#c6262e;stop-opacity:1"
         offset="0.66093999" />
      <stop
         id="stop3250-3"
         style="stop-color:#690b54;stop-opacity:1"
         offset="1" />
    </radialGradient>
    <linearGradient
       x1="7.0776"
       y1="3.0816"
       x2="7.0776"
       y2="45.368999"
       id="linearGradient3081"
       gradientUnits="userSpaceOnUse"
       gradientTransform="matrix(0.12279747,0,0,0.12279748,5.0528597,5.0527696)">
      <stop
         id="stop2492-0"
         style="stop-color:#791235;stop-opacity:1"
         offset="0" />
      <stop
         id="stop2494-6"
         style="stop-color:#c7321f;stop-opacity:1"
         offset="1" />
    </linearGradient>
    <radialGradient
       cx="23.896"
       cy="3.99"
       r="20.396999"
       id="radialGradient3087"
       gradientUnits="userSpaceOnUse"
       gradientTransform="matrix(0,0.87967058,-1.1611496,0,12.63299,-21.084396)">
      <stop
         id="stop3244-9"
         style="stop-color:#ffffff;stop-opacity:1"
         offset="0" />
      <stop
         id="stop3246-3"
         style="stop-color:#dddddd;stop-opacity:1"
         offset="0.26238" />
      <stop
         id="stop3248-1"
         style="stop-color:#abacae;stop-opacity:1"
         offset="0.66093999" />
      <stop
         id="stop3250-9"
         style="stop-color:#89898b;stop-opacity:1"
         offset="1" />
    </radialGradient>
    <linearGradient
       x1="18.379"
       y1="44.98"
       x2="18.379"
       y2="3.0816"
       id="linearGradient3089"
       gradientUnits="userSpaceOnUse"
       gradientTransform="matrix(0.36857849,0,0,0.36857855,-0.84588394,-0.84577376)">
      <stop
         id="stop2492-4"
         style="stop-color:#505050;stop-opacity:1"
         offset="0" />
      <stop
         id="stop2494-7"
         style="stop-color:#aaaaaa;stop-opacity:1"
         offset="1" />
    </linearGradient>
    <linearGradient
       x1="71.204002"
       y1="6.2375998"
       x2="71.204002"
       y2="44.341"
       id="linearGradient3014"
       xlink:href="#linearGradient3280"
       gradientUnits="userSpaceOnUse"
       gradientTransform="matrix(0.35135136,0,0,0.35135136,-17.203671,-0.90930025)" />
    <linearGradient
       x1="71.204002"
       y1="6.2375998"
       x2="71.204002"
       y2="44.341"
       id="linearGradient3017"
       xlink:href="#linearGradient3076"
       gradientUnits="userSpaceOnUse"
       gradientTransform="matrix(0.24324325,0,0,-0.24324327,-9.4486935,14.168118)" />
    <radialGradient
       cx="23.896"
       cy="3.99"
       r="20.396999"
       id="radialGradient3020"
       xlink:href="#radialGradient3079"
       gradientUnits="userSpaceOnUse"
       gradientTransform="matrix(0,0.41038696,-0.54170353,0,10.161398,-5.5687319)" />
    <linearGradient
       x1="7.0776"
       y1="3.0816"
       x2="7.0776"
       y2="45.368999"
       id="linearGradient3022"
       xlink:href="#linearGradient3081"
       gradientUnits="userSpaceOnUse"
       gradientTransform="matrix(0.17195052,0,0,0.17195054,3.8731861,3.8730601)" />
    <radialGradient
       cx="23.896"
       cy="3.99"
       r="20.396999"
       id="radialGradient3025"
       xlink:href="#radialGradient3087"
       gradientUnits="userSpaceOnUse"
       gradientTransform="matrix(0,0.87967058,-1.1611496,0,12.63299,-21.084396)" />
    <linearGradient
       x1="18.379"
       y1="44.98"
       x2="18.379"
       y2="3.0816"
       id="linearGradient3027"
       xlink:href="#linearGradient3089"
       gradientUnits="userSpaceOnUse"
       gradientTransform="matrix(0.36857849,0,0,0.36857855,-0.84588394,-0.84577376)" />
    <linearGradient
       x1="71.204002"
       y1="6.2375998"
       x2="71.204002"
       y2="44.341"
       id="linearGradient3280-2"
       gradientUnits="userSpaceOnUse"
       gradientTransform="matrix(0.35135136,0,0,0.35135136,-17.203671,-0.90930025)">
      <stop
         id="stop4013-9"
         style="stop-color:#ffffff;stop-opacity:1"
         offset="0" />
      <stop
         id="stop4015-3"
         style="stop-color:#ffffff;stop-opacity:0.23529412"
         offset="0.50775999" />
      <stop
         id="stop4017-1"
         style="stop-color:#ffffff;stop-opacity:0.15686275"
         offset="0.83456999" />
      <stop
         id="stop4019-9"
         style="stop-color:#ffffff;stop-opacity:0.39215687"
         offset="1" />
    </linearGradient>
    <linearGradient
       x1="71.204002"
       y1="6.2375998"
       x2="71.204002"
       y2="44.341"
       id="linearGradient3046"
       xlink:href="#linearGradient3280-2"
       gradientUnits="userSpaceOnUse"
       gradientTransform="matrix(0.13513513,0,0,0.13513513,-1.6937191,4.5733462)" />
  </defs>
  <metadata
     id="metadata3038">
    <rdf:RDF>
      <cc:Work
         rdf:about="">
        <dc:format>image/svg+xml</dc:format>
        <dc:type
           rdf:resource="http://purl.org/dc/dcmitype/StillImage" />
        <dc:title />
      </cc:Work>
    </rdf:RDF>
  </metadata>
  <path
     d="m 8,0.50183 c -4.1373,0 -7.4982,3.361 -7.4982,7.4982 0,4.1373 3.361,7.4982 7.4982,7.4982 4.1373,0 7.4982,-3.361 7.4982,-7.4982 0,-4.1373 -3.361,-7.4982 -7.4982,-7.4982 z"
     id="path2555-4"
     style="fill:url(#radialGradient3025);stroke:url(#linearGradient3027);stroke-width:1.00365412;stroke-linecap:round;stroke-linejoin:round;stroke-miterlimit:4;stroke-dasharray:none;stroke-dashoffset:0" />
  <path
     d="m 8.0000001,4.5018272 c -1.9301424,0 -3.498173,1.5680306 -3.498173,3.498173 0,1.9301424 1.5680306,3.4981728 3.498173,3.4981728 1.9301419,0 3.4981729,-1.5680304 3.4981729,-3.4981728 0,-1.9301424 -1.568031,-3.498173 -3.4981729,-3.498173 z"
     id="path2555-3"
     style="fill:url(#radialGradient3020);stroke:url(#linearGradient3022);stroke-width:1.00365412;stroke-linecap:round;stroke-linejoin:round;stroke-miterlimit:4;stroke-dasharray:none;stroke-dashoffset:0" />
  <path
     d="M 12.5,8.0001291 C 12.5,5.5147145 10.485157,3.5000001 8.0001287,3.5000001 5.5147144,3.5000001 3.5,5.5148431 3.5,8.0001291 3.5,10.485415 5.5147144,12.5 8.0001287,12.5 10.485157,12.5 12.5,10.485415 12.5,8.0001291 z"
     id="path8655-6-1"
     style="opacity:0.5;color:#000000;fill:none;stroke:url(#linearGradient3017);stroke-width:1;stroke-linecap:round;stroke-linejoin:round;stroke-miterlimit:4;stroke-dasharray:none;stroke-dashoffset:0;enable-background:accumulate" />
  <path
     d="M 14.5,7.9998 C 14.5,11.59 11.59,14.5 8.0001,14.5 4.4102,14.5 1.5,11.59 1.5,7.9998 1.5,4.41 4.4102,1.5 8.0001,1.5 11.59,1.5 14.5,4.41 14.5,7.9998 z"
     id="path8655-6"
     style="opacity:0.8;color:#000000;fill:none;stroke:url(#linearGradient3014);stroke-width:0.99999994;stroke-linecap:round;stroke-linejoin:round;stroke-miterlimit:4;stroke-dasharray:none;stroke-dashoffset:0;enable-background:accumulate" />
  <path
     d="M 10.5,7.999923 C 10.5,9.3807691 9.3807691,10.5 8.0000383,10.5 6.6193076,10.5 5.5,9.3807691 5.5,7.999923 5.5,6.6192307 6.6193076,5.5 8.0000383,5.5 9.3807691,5.5 10.5,6.6192307 10.5,7.999923 z"
     id="path8655-6-4"
     style="opacity:0.5;color:#000000;fill:none;stroke:url(#linearGradient3046);stroke-width:1;stroke-linecap:round;stroke-linejoin:round;stroke-miterlimit:4;stroke-dasharray:none;stroke-dashoffset:0;enable-background:accumulate" />
</svg>
